packages/gestalt-icons-android/vr-theme/ic_vr_megaphone_gestalt.svg

<svg width="24" height="24" viewBox="0 0 24 24" fill="none" xmlns="http://www.w3.org/2000/svg">
<path fill-rule="evenodd" clip-rule="evenodd" d="M5 18.5449L4.30486 18.4222C2.39343 18.0849 1 16.424 1 14.4831V9.51694C1 7.57598 2.39343 5.91512 4.30486 5.57781L15.8719 3.53657C17.1027 3.31936 18 2.24987 18 1H20L20 7C20.5253 7 21.0454 7.12933 21.5307 7.3806C22.016 7.63188 22.457 8.00017 22.8284 8.46447C23.1999 8.92876 23.4945 9.47996 23.6955 10.0866C23.8965 10.6932 24 11.3434 24 12C24 12.6566 23.8965 13.3068 23.6955 13.9134C23.4945 14.52 23.1999 15.0712 22.8284 15.5355C22.457 15.9998 22.016 16.3681 21.5307 16.6194C21.0454 16.8707 20.5253 17 20 17V23H18C18 21.7501 17.1027 20.6806 15.8719 20.4634L12.2811 19.8298L11.6792 21.1841C11.0344 22.6349 9.37091 23.3321 7.88437 22.7746L6.94663 22.423C5.77572 21.9839 5 20.8645 5 19.614V18.5449ZM18 4.78251C17.4778 5.13846 16.8753 5.3904 16.2194 5.50614L7 7.1331V16.8669L16.2194 18.4939C16.8753 18.6096 17.4778 18.8615 18 19.2175L18 4.78251ZM5 16.514V7.48604L4.65243 7.54738C3.69671 7.71603 3 8.54646 3 9.51694L3 14.4831C3 15.4535 3.69671 16.284 4.65243 16.4526L5 16.514ZM10.2516 19.4716L9.85155 20.3718C9.63662 20.8554 9.08213 21.0878 8.58662 20.902L7.64888 20.5503C7.25857 20.404 7 20.0308 7 19.614V18.8978L10.2516 19.4716ZM20.7654 9.22836C20.3858 8.9925 20 9.3623 20 9.80922L20 14.1908C20 14.6377 20.3858 15.0075 20.7654 14.7716C21.008 14.6209 21.2285 14.3999 21.4142 14.1213C21.5999 13.8427 21.7472 13.512 21.8478 13.1481C21.9483 12.7841 22 12.394 22 12C22 11.606 21.9483 11.2159 21.8478 10.852C21.7472 10.488 21.5999 10.1573 21.4142 9.87868C21.2285 9.6001 21.008 9.37913 20.7654 9.22836Z" fill="black"/>
</svg>

<svg xmlns="http://www.w3.org/2000/svg" width="24" height="24"><path d="m5 18.54-.7-.12A4 4 0 0 1 1 14.48V9.52a4 4 0 0 1 3.3-3.94l11.57-2.04A2.6 2.6 0 0 0 18 1h2v6q.8 0 1.53.38.74.38 1.3 1.08t.87 1.63a6 6 0 0 1 0 3.82q-.3.92-.87 1.63-.56.7-1.3 1.08Q20.8 17 20 17v6h-2c0-1.25-.9-2.32-2.13-2.54l-3.59-.63-.6 1.35a3 3 0 0 1-3.8 1.6l-.93-.36A3 3 0 0 1 5 19.62zM18 4.78q-.79.54-1.78.73L7 7.13v9.74l9.22 1.62q1 .19 1.78.73zM5 16.51V7.5l-.35.06A2 2 0 0 0 3 9.52v4.96a2 2 0 0 0 1.65 1.97zm2 2.39v.71a1 1 0 0 0 .65.94l.94.35a1 1 0 0 0 1.26-.53l.4-.9zm13.77-9.67c-.38-.24-.77.13-.77.58v4.38c0 .45.39.82.77.58q.37-.23.64-.65.29-.42.44-.97a4.3 4.3 0 0 0 0-2.3q-.15-.55-.44-.97-.27-.42-.64-.65"/></svg>
